X:271
T:B271-  The Lass of Cumberland
S:(2nd/2)
Q:1/4=120
L:1/4
M:C|
K:Gm
d|c3/2B/cd|B3/2A/G3/2B/|FBB3/2c/|(d/c/) (d/e/)f2|\
ag(f/a/)b|d(c/B/)c3/2c/|ddg3/2A/|BGG||G|\
f3/2g/f3/2d/|(g/a/) (g/f/)b2|bg(g/a/)b|ddd2|\
e/d/c/B/ c3/2B/|A/B/A/G/ A(B/c/)|ddg3/2a/|bgg|]
